X: 60
T: Pollonesse #60
M: 3/4
L: 1/16
K: F
Q:110
e2ag a2f2 e4|e2ge f2c2 d4|e2ag a2f2 e2fd|c2dB A2BG F2GE| D2z2 C2z2 A,4:|
A2B2 A2G2 F2E2|E2F2 D2z2 A,2z2|e2f2 e2g2 f2a2|fecd d4 D4:|
